remix/Device/signal-wifi-3-line.svg

<svg viewBox="0 0 24 24" fill="currentColor" xmlns="http://www.w3.org/2000/svg"><path d="M12.0005 3C16.2849 3 20.2196 4.49683 23.3104 6.99607L12.0005 21L0.689941 6.99671C3.78078 4.49709 7.71583 3 12.0005 3ZM12.0005 10C10.1028 10 8.31726 10.4806 6.75905 11.3267L12.0005 17.8169L17.2419 11.3266C15.6837 10.4805 13.8982 10 12.0005 10ZM12.0005 5C8.97296 5 6.07788 5.84185 3.57997 7.39179L5.48439 9.74853C7.40016 8.63663 9.626 8 12.0005 8C14.3751 8 16.6011 8.63667 18.5169 9.74863L20.4204 7.39132C17.9226 5.84167 15.0278 5 12.0005 5Z"/></svg>

<svg viewBox="0 0 24 24" xmlns="http://www.w3.org/2000/svg"><path fill="none" d="M0 0h24v24H0Z"/><path d="M12 3c4.28 0 8.22 1.49 11.31 3.99L12 20.99 .69 6.98C3.78 4.48 7.71 2.99 12 2.99Zm0 7c-1.9 0-3.683.48-5.25 1.327l5.24 6.49 5.24-6.49C15.67 10.477 13.887 10 11.989 10Zm0-5c-3.03 0-5.923.84-8.42 2.39l1.904 2.35C7.394 8.628 9.625 7.99 12 7.99c2.375 0 4.6.63 6.51 1.74l1.9-2.36c-2.5-1.55-5.4-2.39-8.42-2.39Z"/></svg>
